packages/heroicons/src/prism/trash.svg

<!-- Generated by IcoMoon.io -->
<svg version="1.1" xmlns="http://www.w3.org/2000/svg" width="16" height="16" viewBox="0 0 16 16">
<title>trash</title>
<path fill="#4a4a4a" d="M3.156 15.75h9.688l0.969-10.656h-11.625zM9.938 2.188v-1.938h-3.875v1.938h-4.844v2.906l0.969-0.969h11.625l0.969 0.969v-2.906h-4.844zM8.969 2.188h-1.938v-0.969h1.938v0.969z"></path>
</svg>

<svg xmlns="http://www.w3.org/2000/svg" aria-hidden="true" fill="currentColor" viewBox="0 0 16 16">
  <path d="M3.156 15.75h9.688l.969-10.656H2.188zM9.938 2.188V.25H6.063v1.938H1.219v2.906l.969-.969h11.625l.969.969V2.188H9.938zm-.969 0H7.031v-.969h1.938v.969z"/>
</svg>
